public/img/top/n3-network.svg

<svg width="100" height="100" viewBox="0 0 100 100" fill="none" xmlns="http://www.w3.org/2000/svg">
<circle cx="50" cy="50" r="50" fill="white"/>
<path opacity="0.7" d="M18.5081 63.72V69H16.9801L15.3401 66.144L14.9401 65.36H14.9321L14.9641 66.336V69H13.7481V63.72H15.2761L16.9161 66.576L17.3161 67.36H17.3241L17.2921 66.384V63.72H18.5081ZM21.5018 69.08C20.9364 69.08 20.4644 68.9707 20.0858 68.752C19.7124 68.528 19.4538 68.2027 19.3098 67.776L20.5738 67.232C20.6004 67.424 20.6484 67.5787 20.7178 67.696C20.7924 67.808 20.8911 67.8907 21.0138 67.944C21.1364 67.992 21.2804 68.016 21.4457 68.016C21.5951 68.016 21.7204 67.992 21.8218 67.944C21.9284 67.8907 22.0111 67.816 22.0698 67.72C22.1284 67.624 22.1578 67.5093 22.1578 67.376C22.1578 67.2373 22.1284 67.1253 22.0698 67.04C22.0164 66.9547 21.9364 66.8933 21.8298 66.856C21.7284 66.8187 21.6031 66.8 21.4538 66.8C21.3844 66.8 21.3204 66.8027 21.2618 66.808C21.2031 66.808 21.1364 66.8133 21.0618 66.824V65.928C21.1044 65.9333 21.1471 65.9387 21.1898 65.944C21.2324 65.944 21.2831 65.944 21.3418 65.944C21.5924 65.944 21.7711 65.8933 21.8778 65.792C21.9898 65.6853 22.0458 65.52 22.0458 65.296C22.0458 65.104 21.9898 64.9573 21.8778 64.856C21.7711 64.7547 21.6191 64.704 21.4218 64.704C21.2138 64.704 21.0431 64.76 20.9098 64.872C20.7764 64.9787 20.6911 65.1627 20.6538 65.424L19.4458 65.008C19.5044 64.7147 19.6298 64.4667 19.8218 64.264C20.0138 64.0613 20.2538 63.9067 20.5418 63.8C20.8351 63.6933 21.1578 63.64 21.5098 63.64C21.9151 63.64 22.2564 63.6987 22.5338 63.816C22.8111 63.9333 23.0218 64.1013 23.1658 64.32C23.3098 64.5387 23.3818 64.7947 23.3818 65.088C23.3818 65.3173 23.3444 65.5093 23.2698 65.664C23.2004 65.8187 23.1098 65.944 22.9978 66.04C22.8911 66.136 22.7818 66.208 22.6698 66.256C22.5578 66.2987 22.4644 66.3253 22.3898 66.336V66.36C22.4858 66.36 22.5951 66.3787 22.7178 66.416C22.8404 66.4533 22.9604 66.5147 23.0778 66.6C23.1951 66.68 23.2911 66.792 23.3658 66.936C23.4458 67.08 23.4858 67.2587 23.4858 67.472C23.4858 67.8027 23.3978 68.088 23.2218 68.328C23.0511 68.568 22.8164 68.7547 22.5178 68.888C22.2191 69.016 21.8804 69.08 21.5018 69.08ZM28.4519 62.464C28.4279 62.656 28.4039 62.952 28.4039 63.2V63.616H29.3639C29.6119 63.616 29.8359 63.592 30.0279 63.536L30.6919 64.184C30.4839 64.384 30.2439 64.656 30.0679 64.848C29.6599 65.312 29.0519 65.912 28.3879 66.416C28.3879 67.056 28.3799 67.928 28.3799 68.432C28.3799 68.752 28.4119 69.208 28.4359 69.456H27.2839C27.3159 69.232 27.3479 68.752 27.3479 68.432V67.064C26.6119 67.456 25.7559 67.784 24.8919 68.048L24.2759 67.104C25.8199 66.76 26.8439 66.208 27.5399 65.768C28.1559 65.368 28.6519 64.904 28.8839 64.576H25.9879C25.6999 64.576 25.1959 64.584 24.9479 64.608V63.56C25.2519 63.608 25.6919 63.616 25.9719 63.616H27.3559V63.2C27.3559 62.952 27.3399 62.664 27.3079 62.464H28.4519ZM30.8039 68.128C30.1079 67.576 29.5879 67.24 28.8919 66.856L29.5559 66.088C30.2919 66.488 30.7079 66.72 31.4759 67.248L30.8039 68.128ZM35.8759 64.248C36.0279 64.592 36.4199 65.632 36.5319 66L35.5719 66.336C35.4759 65.944 35.1239 64.976 34.9239 64.56L35.8759 64.248ZM38.8279 64.832C38.7319 65.088 38.6839 65.256 38.6359 65.416C38.4279 66.224 38.0919 67.056 37.5479 67.76C36.8039 68.72 35.8039 69.392 34.8679 69.744L34.0279 68.888C34.9079 68.656 36.0199 68.048 36.6839 67.216C37.2279 66.536 37.6119 65.472 37.7079 64.472L38.8279 64.832ZM34.0199 64.672C34.2199 65.08 34.6039 66.048 34.7639 66.496L33.7879 66.864C33.6519 66.432 33.2519 65.368 33.0599 65.016L34.0199 64.672ZM42.3479 68.232V63.632C42.3479 63.352 42.3239 62.952 42.2679 62.672H43.5159C43.4839 62.952 43.4439 63.304 43.4439 63.632V64.816C44.5159 65.128 46.0519 65.696 46.7879 66.056L46.3319 67.16C45.5079 66.728 44.3079 66.264 43.4439 65.968V68.232C43.4439 68.464 43.4839 69.024 43.5159 69.352H42.2679C42.3159 69.032 42.3479 68.552 42.3479 68.232ZM55.0519 63.64C55.0039 63.76 54.9319 64.064 54.9079 64.176C54.7639 65.016 54.5799 66.176 53.9559 67.144C53.2919 68.192 52.2039 68.992 50.9239 69.44L50.0279 68.528C51.1079 68.264 52.3399 67.6 52.9719 66.6C53.3719 65.952 53.6199 65.064 53.6999 64.2H49.8599V65.536C49.8599 65.656 49.8679 65.944 49.8919 66.192H48.7159C48.7399 65.944 48.7559 65.752 48.7559 65.536V63.848C48.7559 63.632 48.7399 63.384 48.7159 63.176C48.9719 63.192 49.3239 63.208 49.6999 63.208H53.5239C53.7959 63.208 54.0679 63.192 54.2839 63.152L55.0519 63.64ZM56.5719 65.296C56.8599 65.32 57.4439 65.344 57.8599 65.344H62.1559C62.5319 65.344 62.8839 65.312 63.0919 65.296V66.552C62.8999 66.544 62.4919 66.512 62.1559 66.512H57.8599C57.4039 66.512 56.8679 66.528 56.5719 66.552V65.296ZM68.4199 62.76C68.2359 63.04 68.0279 63.4 67.9319 63.576C67.9239 63.592 67.9159 63.6 67.9079 63.616H69.5159C69.7639 63.616 70.0279 63.576 70.2119 63.52L71.0279 64.024C70.9399 64.176 70.8279 64.4 70.7639 64.6C70.5479 65.312 70.0919 66.376 69.3719 67.272C68.6119 68.2 67.6439 68.936 66.1399 69.528L65.1959 68.68C66.8359 68.192 67.7239 67.496 68.4199 66.704C68.9639 66.08 69.4279 65.12 69.5559 64.52H67.3079C66.7719 65.216 66.0759 65.92 65.2919 66.456L64.3959 65.792C65.7959 64.936 66.4919 63.904 66.8919 63.216C67.0119 63.016 67.1799 62.648 67.2519 62.376L68.4199 62.76ZM72.1319 66.616C72.3719 66.432 72.5719 66.248 72.8119 65.992C73.1799 65.608 73.7959 64.784 74.2919 64.208C74.8519 63.576 75.3719 63.52 75.9559 64.088C76.4999 64.616 77.1399 65.44 77.6119 65.952C78.1239 66.512 78.8039 67.232 79.5639 67.912L78.7399 68.872C78.1639 68.328 77.4839 67.552 76.9799 66.96C76.4839 66.368 75.8839 65.608 75.5079 65.184C75.2279 64.872 75.0759 64.912 74.8439 65.208C74.5239 65.608 73.9559 66.4 73.6119 66.856C73.4279 67.12 73.2439 67.408 73.1079 67.616L72.1319 66.616ZM87.2519 66.184C87.2519 67.872 86.2199 69.064 84.2039 69.376L83.6039 68.424C83.9079 68.392 84.1319 68.344 84.3479 68.296C85.3719 68.056 86.1719 67.32 86.1719 66.152C86.1719 65.048 85.5719 64.224 84.4919 64.04C84.3799 64.72 84.2439 65.456 84.0119 66.208C83.5319 67.824 82.8439 68.816 81.9719 68.816C81.0839 68.816 80.3479 67.84 80.3479 66.488C80.3479 64.64 81.9479 63.064 84.0199 63.064C86.0039 63.064 87.2519 64.44 87.2519 66.184ZM81.3719 66.384C81.3719 67.192 81.6919 67.584 82.0039 67.584C82.3399 67.584 82.6519 67.08 82.9799 66C83.1639 65.408 83.3159 64.728 83.4039 64.064C82.0839 64.336 81.3719 65.504 81.3719 66.384ZM29.94 75.632L29.396 76.376C29.3 76.168 29.108 75.856 28.916 75.568V78.688H27.996V75.816C27.74 76.432 27.436 77 27.124 77.4C27.036 77.128 26.836 76.736 26.684 76.496C27.132 75.976 27.572 75.128 27.868 74.352H26.852V73.464H27.996V72.536C27.66 72.6 27.332 72.656 27.02 72.696C26.972 72.48 26.86 72.16 26.756 71.968C27.636 71.816 28.62 71.584 29.236 71.304L29.868 72.032C29.58 72.144 29.26 72.248 28.916 72.336V73.464H29.772V74.352H28.916V74.584C29.132 74.76 29.788 75.456 29.94 75.632ZM33.004 75.8H31.804C31.724 75.88 31.636 75.96 31.548 76.04C31.828 76.208 32.14 76.424 32.372 76.624C32.62 76.384 32.836 76.112 33.004 75.8ZM32.62 72.688H31.38C31.332 72.736 31.276 72.784 31.22 72.832C31.484 72.992 31.772 73.2 31.988 73.4C32.236 73.184 32.452 72.952 32.62 72.688ZM33.628 74.992L34.236 75.232C33.596 77.304 32.036 78.264 30.012 78.72C29.916 78.48 29.708 78.104 29.54 77.912C30.34 77.768 31.068 77.528 31.668 77.16C31.444 76.952 31.156 76.728 30.884 76.552C30.7 76.672 30.508 76.784 30.308 76.896C30.188 76.688 29.924 76.376 29.732 76.232C30.636 75.808 31.268 75.24 31.652 74.664C31.196 74.912 30.7 75.104 30.18 75.256C30.084 75.04 29.86 74.688 29.692 74.504C30.284 74.368 30.844 74.152 31.332 73.864C31.132 73.672 30.86 73.456 30.62 73.296C30.444 73.408 30.26 73.528 30.06 73.632C29.932 73.432 29.652 73.112 29.468 72.976C30.476 72.512 31.124 71.848 31.468 71.232L32.396 71.4C32.292 71.584 32.18 71.76 32.052 71.928H33.124L33.276 71.888L33.884 72.16C33.532 73.128 32.908 73.848 32.132 74.376L32.78 74.488C32.684 74.672 32.572 74.848 32.452 75.024H33.46L33.628 74.992ZM41.964 71.68V72.584H38.076V71.68H41.964ZM36.54 71.224L37.46 71.6C36.884 72.352 36.02 73.176 35.26 73.704C35.14 73.496 34.9 73.112 34.732 72.928C35.396 72.504 36.156 71.784 36.54 71.224ZM36.844 72.952L37.756 73.304C37.516 73.712 37.22 74.128 36.9 74.528V78.704H35.948V75.576C35.724 75.792 35.508 75.992 35.292 76.168C35.156 75.976 34.836 75.544 34.644 75.344C35.46 74.784 36.332 73.856 36.844 72.952ZM42.164 73.88V74.784H41.068V77.592C41.068 78.104 40.972 78.368 40.62 78.512C40.284 78.656 39.772 78.672 39.06 78.672C39.02 78.392 38.9 77.984 38.772 77.704C39.228 77.728 39.756 77.728 39.9 77.72C40.044 77.72 40.1 77.688 40.1 77.568V74.784H37.74V73.88H42.164ZM46.292 76.96C46.292 77.288 46.612 77.424 47.036 77.424C47.524 77.424 47.692 77.168 47.692 76.696C47.692 76.656 47.692 76.608 47.692 76.552C47.484 76.496 47.268 76.464 47.052 76.464C46.596 76.464 46.292 76.656 46.292 76.96ZM48.668 71.736C48.644 71.888 48.628 72.08 48.62 72.256C48.612 72.432 48.604 72.728 48.596 73.08C49.036 73.04 49.452 72.976 49.836 72.896V73.896C49.452 73.952 49.036 74 48.596 74.032C48.612 74.808 48.652 75.448 48.684 75.992C49.348 76.264 49.852 76.672 50.236 77.024L49.684 77.864C49.348 77.552 49.028 77.272 48.708 77.056C48.66 77.824 48.228 78.368 47.148 78.368C46.044 78.368 45.356 77.904 45.356 77.064C45.356 76.256 46.044 75.696 47.132 75.696C47.316 75.696 47.492 75.704 47.652 75.728C47.636 75.232 47.604 74.648 47.596 74.08C47.404 74.088 47.212 74.088 47.028 74.088C46.556 74.088 46.1 74.072 45.628 74.04V73.088C46.084 73.136 46.548 73.16 47.028 73.16C47.212 73.16 47.404 73.16 47.588 73.152C47.588 72.76 47.58 72.432 47.58 72.264C47.58 72.144 47.556 71.896 47.524 71.736H48.668ZM44.764 71.824C44.7 71.984 44.604 72.392 44.58 72.536C44.46 73.072 44.196 74.832 44.196 75.632C44.196 75.792 44.204 75.992 44.228 76.152C44.332 75.872 44.468 75.6 44.588 75.328L45.076 75.728C44.852 76.384 44.596 77.2 44.5 77.632C44.476 77.744 44.46 77.92 44.46 78.008C44.46 78.088 44.468 78.224 44.476 78.336L43.572 78.408C43.404 77.848 43.252 76.936 43.252 75.848C43.252 74.64 43.492 73.128 43.58 72.512C43.612 72.288 43.652 71.984 43.66 71.728L44.764 71.824ZM52.244 72.184C52.836 72.248 53.58 72.28 54.42 72.28C55.212 72.28 56.124 72.232 56.74 72.168V73.232C56.18 73.28 55.188 73.328 54.428 73.328C53.588 73.328 52.892 73.296 52.244 73.24V72.184ZM52.916 75.576C52.836 75.864 52.78 76.112 52.78 76.384C52.78 76.896 53.268 77.264 54.42 77.264C55.5 77.264 56.524 77.144 57.228 76.944L57.236 78.072C56.54 78.24 55.58 78.344 54.46 78.344C52.628 78.344 51.708 77.728 51.708 76.632C51.708 76.168 51.804 75.776 51.868 75.48L52.916 75.576ZM62.124 71.624C62.036 71.904 61.988 72.176 61.932 72.44C61.916 72.512 61.9 72.6 61.884 72.688C62.796 72.64 63.876 72.52 64.844 72.312L64.86 73.264C64.028 73.4 62.756 73.552 61.684 73.608C61.572 74.096 61.444 74.608 61.324 75C61.972 74.64 62.596 74.496 63.308 74.496C64.604 74.496 65.46 75.184 65.46 76.208C65.46 78.008 63.724 78.656 61.14 78.376L60.86 77.344C62.612 77.632 64.38 77.416 64.38 76.24C64.38 75.76 63.972 75.36 63.188 75.36C62.268 75.36 61.452 75.688 60.972 76.296C60.884 76.408 60.828 76.512 60.748 76.648L59.804 76.312C60.188 75.568 60.508 74.504 60.716 73.624C60.212 73.616 59.74 73.592 59.332 73.552V72.56C59.812 72.64 60.412 72.704 60.9 72.712C60.916 72.592 60.932 72.48 60.948 72.384C60.996 72.04 61.004 71.84 60.988 71.576L62.124 71.624ZM69.172 71.56C69.932 71.8 71.676 72.104 72.372 72.184L72.132 73.16C71.324 73.056 69.54 72.68 68.916 72.52L69.172 71.56ZM69.22 73.168C69.116 73.608 68.972 74.584 68.916 75.04C69.644 74.512 70.436 74.28 71.276 74.28C72.676 74.28 73.492 75.144 73.492 76.112C73.492 77.568 72.34 78.688 69.012 78.408L68.708 77.36C71.108 77.688 72.38 77.104 72.38 76.088C72.38 75.568 71.884 75.184 71.188 75.184C70.284 75.184 69.468 75.52 68.964 76.128C68.82 76.304 68.74 76.432 68.668 76.592L67.748 76.36C67.908 75.576 68.092 74.008 68.148 73.016L69.22 73.168Z" fill="#000033"/>
<path d="M35 27.95V50.6167L49.7333 56V33.05L65.7417 27.1L51.15 22L35 27.95Z" fill="#00E599"/>
<path d="M50.8672 33.9V46.0833L65.7422 51.4667V28.375L50.8672 33.9Z" fill="#00B291"/>
</svg>

<svg fill="none" height="100" viewBox="0 0 100 100" width="100" xmlns="http://www.w3.org/2000/svg"><circle cx="50" cy="50" fill="#fff" r="50"/><path d="m18.5081 63.72v5.28h-1.528l-1.64-2.856-.4-.784h-.008l.032.976v2.664h-1.216v-5.28h1.528l1.64 2.856.4.784h.008l-.032-.976v-2.664zm2.9937 5.36c-.5654 0-1.0374-.1093-1.416-.328-.3734-.224-.632-.5493-.776-.976l1.264-.544c.0266.192.0746.3467.144.464.0746.112.1733.1947.296.248.1226.048.2666.072.4319.072.1494 0 .2747-.024.3761-.072.1066-.0533.1893-.128.248-.224.0586-.096.088-.2107.088-.344 0-.1387-.0294-.2507-.088-.336-.0534-.0853-.1334-.1467-.24-.184-.1014-.0373-.2267-.056-.376-.056-.0694 0-.1334.0027-.192.008-.0587 0-.1254.0053-.2.016v-.896c.0426.0053.0853.0107.128.016h.152c.2506 0 .4293-.0507.536-.152.112-.1067.168-.272.168-.496 0-.192-.056-.3387-.168-.44-.1067-.1013-.2587-.152-.456-.152-.208 0-.3787.056-.512.168-.1334.1067-.2187.2907-.256.552l-1.208-.416c.0586-.2933.184-.5413.376-.744s.432-.3573.72-.464c.2933-.1067.616-.16.968-.16.4053 0 .7466.0587 1.024.176.2773.1173.488.2853.632.504s.216.4747.216.768c0 .2293-.0374.4213-.112.576-.0694.1547-.16.28-.272.376-.1067.096-.216.168-.328.216-.112.0427-.2054.0693-.28.08v.024c.096 0 .2053.0187.328.056.1226.0373.2426.0987.36.184.1173.08.2133.192.288.336.08.144.12.3227.12.536 0 .3307-.088.616-.264.856-.1707.24-.4054.4267-.704.56-.2987.128-.6374.192-1.016.192zm6.9501-6.616c-.024.192-.048.488-.048.736v.416h.96c.248 0 .472-.024.664-.08l.664.648c-.208.2-.448.472-.624.664-.408.464-1.016 1.064-1.68 1.568 0 .64-.008 1.512-.008 2.016 0 .32.032.776.056 1.024h-1.152c.032-.224.064-.704.064-1.024v-1.368c-.736.392-1.592.72-2.456.984l-.616-.944c1.544-.344 2.568-.896 3.264-1.336.616-.4 1.112-.864 1.344-1.192h-2.896c-.288 0-.792.008-1.04.032v-1.048c.304.048.744.056 1.024.056h1.384v-.416c0-.248-.016-.536-.048-.736zm2.352 5.664c-.696-.552-1.216-.888-1.912-1.272l.664-.768c.736.4 1.152.632 1.92 1.16zm5.072-3.88c.152.344.544 1.384.656 1.752l-.96.336c-.096-.392-.448-1.36-.648-1.776zm2.952.584c-.096.256-.144.424-.192.584-.208.808-.544 1.64-1.088 2.344-.744.96-1.744 1.632-2.68 1.984l-.84-.856c.88-.232 1.992-.84 2.656-1.672.544-.68.928-1.744 1.024-2.744zm-4.808-.16c.2.408.584 1.376.744 1.824l-.976.368c-.136-.432-.536-1.496-.728-1.848zm8.328 3.56v-4.6c0-.28-.024-.68-.08-.96h1.248c-.032.28-.072.632-.072.96v1.184c1.072.312 2.608.88 3.344 1.24l-.456 1.104c-.824-.432-2.024-.896-2.888-1.192v2.264c0 .232.04.792.072 1.12h-1.248c.048-.32.08-.8.08-1.12zm12.704-4.592c-.048.12-.12.424-.144.536-.144.84-.328 2-.952 2.968-.664 1.048-1.752 1.848-3.032 2.296l-.896-.912c1.08-.264 2.312-.928 2.944-1.928.4-.648.648-1.536.728-2.4h-3.84v1.336c0 .12.008.408.032.656h-1.176c.024-.248.04-.44.04-.656v-1.688c0-.216-.016-.464-.04-.672.256.016.608.032.984.032h3.824c.272 0 .544-.016.76-.056zm1.52 1.656c.288.024.872.048 1.288.048h4.296c.376 0 .728-.032.936-.048v1.256c-.192-.008-.6-.04-.936-.04h-4.296c-.456 0-.992.016-1.288.04zm11.848-2.536c-.184.28-.392.64-.488.816-.008.016-.016.024-.024.04h1.608c.248 0 .512-.04.696-.096l.816.504c-.088.152-.2.376-.264.576-.216.712-.672 1.776-1.392 2.672-.76.928-1.728 1.664-3.232 2.256l-.944-.848c1.64-.488 2.528-1.184 3.224-1.976.544-.624 1.008-1.584 1.136-2.184h-2.248c-.536.696-1.232 1.4-2.016 1.936l-.896-.664c1.4-.856 2.096-1.888 2.496-2.576.12-.2.288-.568.36-.84zm3.712 3.856c.24-.184.44-.368.68-.624.368-.384.984-1.208 1.48-1.784.56-.632 1.08-.688 1.664-.12.544.528 1.184 1.352 1.656 1.864.512.56 1.192 1.28 1.952 1.96l-.824.96c-.576-.544-1.256-1.32-1.76-1.912-.496-.592-1.096-1.352-1.472-1.776-.28-.312-.432-.272-.664.024-.32.4-.888 1.192-1.232 1.648-.184.264-.368.552-.504.76zm15.12-.432c0 1.688-1.032 2.88-3.048 3.192l-.6-.952c.304-.032.528-.08.744-.128 1.024-.24 1.824-.976 1.824-2.144 0-1.104-.6-1.928-1.68-2.112-.112.68-.248 1.416-.48 2.168-.48 1.616-1.168 2.608-2.04 2.608-.888 0-1.624-.976-1.624-2.328 0-1.848 1.6-3.424 3.672-3.424 1.984 0 3.232 1.376 3.232 3.12zm-5.88.2c0 .808.32 1.2.632 1.2.336 0 .648-.504.976-1.584.184-.592.336-1.272.424-1.936-1.32.272-2.032 1.44-2.032 2.32zm-51.4319 9.248-.544.744c-.096-.208-.288-.52-.48-.808v3.12h-.92v-2.872c-.256.616-.56 1.184-.872 1.584-.088-.272-.288-.664-.44-.904.448-.52.888-1.368 1.184-2.144h-1.016v-.888h1.144v-.928c-.336.064-.664.12-.976.16-.048-.216-.16-.536-.264-.728.88-.152 1.864-.384 2.48-.664l.632.728c-.288.112-.608.216-.952.304v1.128h.856v.888h-.856v.232c.216.176.872.872 1.024 1.048zm3.064.168h-1.2c-.08.08-.168.16-.256.24.28.168.592.384.824.584.248-.24.464-.512.632-.824zm-.384-3.112h-1.24c-.048.048-.104.096-.16.144.264.16.552.368.768.568.248-.216.464-.448.632-.712zm1.008 2.304.608.24c-.64 2.072-2.2 3.032-4.224 3.488-.096-.24-.304-.616-.472-.808.8-.144 1.528-.384 2.128-.752-.224-.208-.512-.432-.784-.608-.184.12-.376.232-.576.344-.12-.208-.384-.52-.576-.664.904-.424 1.536-.992 1.92-1.568-.456.248-.952.44-1.472.592-.096-.216-.32-.568-.488-.752.592-.136 1.152-.352 1.64-.64-.2-.192-.472-.408-.712-.568-.176.112-.36.232-.56.336-.128-.2-.408-.52-.592-.656 1.008-.464 1.656-1.128 2-1.744l.928.168c-.104.184-.216.36-.344.528h1.072l.152-.04.608.272c-.352.968-.976 1.688-1.752 2.216l.648.112c-.096.184-.208.36-.328.536h1.008zm8.336-3.312v.904h-3.888v-.904zm-5.424-.456.92.376c-.576.752-1.44 1.576-2.2 2.104-.12-.208-.36-.592-.528-.776.664-.424 1.424-1.144 1.808-1.704zm.304 1.728.912.352c-.24.408-.536.824-.856 1.224v4.176h-.952v-3.128c-.224.216-.44.416-.656.592-.136-.192-.456-.624-.648-.824.816-.56 1.688-1.488 2.2-2.392zm5.32.928v.904h-1.096v2.808c0 .512-.096.776-.448.92-.336.144-.848.16-1.56.16-.04-.28-.16-.688-.288-.968.456.024.984.024 1.128.016.144 0 .2-.032.2-.152v-2.784h-2.36v-.904zm4.128 3.08c0 .328.32.464.744.464.488 0 .656-.256.656-.728 0-.04 0-.088 0-.144-.208-.056-.424-.088-.64-.088-.456 0-.76.192-.76.496zm2.376-5.224c-.024.152-.04.344-.048.52s-.016.472-.024.824c.44-.04.856-.104 1.24-.184v1c-.384.056-.8.104-1.24.136.016.776.056 1.416.088 1.96.664.272 1.168.68 1.552 1.032l-.552.84c-.336-.312-.656-.592-.976-.808-.048.768-.48 1.312-1.56 1.312-1.104 0-1.792-.464-1.792-1.304 0-.808.688-1.368 1.776-1.368.184 0 .36.008.52.032-.016-.496-.048-1.08-.056-1.648-.192.008-.384.008-.568.008-.472 0-.928-.016-1.4-.048v-.952c.456.048.92.072 1.4.072.184 0 .376 0 .56-.008 0-.392-.008-.72-.008-.888 0-.12-.024-.368-.056-.528zm-3.904.088c-.064.16-.16.568-.184.712-.12.536-.384 2.296-.384 3.096 0 .16.008.36.032.52.104-.28.24-.552.36-.824l.488.4c-.224.656-.48 1.472-.576 1.904-.024.112-.04.288-.04.376 0 .08.008.216.016.328l-.904.072c-.168-.56-.32-1.472-.32-2.56 0-1.208.24-2.72.328-3.336.032-.224.072-.528.08-.784zm7.48.36c.592.064 1.336.096 2.176.096.792 0 1.704-.048 2.32-.112v1.064c-.56.048-1.552.096-2.312.096-.84 0-1.536-.032-2.184-.088zm.672 3.392c-.08.288-.136.536-.136.808 0 .512.488.88 1.64.88 1.08 0 2.104-.12 2.808-.32l.008 1.128c-.696.168-1.656.272-2.776.272-1.832 0-2.752-.616-2.752-1.712 0-.464.096-.856.16-1.152zm9.208-3.952c-.088.28-.136.552-.192.816-.016.072-.032.16-.048.248.912-.048 1.992-.168 2.96-.376l.016.952c-.832.136-2.104.288-3.176.344-.112.488-.24 1-.36 1.392.648-.36 1.272-.504 1.984-.504 1.296 0 2.152.688 2.152 1.712 0 1.8-1.736 2.448-4.32 2.168l-.28-1.032c1.752.288 3.52.072 3.52-1.104 0-.48-.408-.88-1.192-.88-.92 0-1.736.328-2.216.936-.088.112-.144.216-.224.352l-.944-.336c.384-.744.704-1.808.912-2.688-.504-.008-.976-.032-1.384-.072v-.992c.48.08 1.08.144 1.568.152.016-.12.032-.232.048-.328.048-.344.056-.544.04-.808zm7.048-.064c.76.24 2.504.544 3.2.624l-.24.976c-.808-.104-2.592-.48-3.216-.64zm.048 1.608c-.104.44-.248 1.416-.304 1.872.728-.528 1.52-.76 2.36-.76 1.4 0 2.216.864 2.216 1.832 0 1.456-1.152 2.576-4.48 2.296l-.304-1.048c2.4.328 3.672-.256 3.672-1.272 0-.52-.496-.904-1.192-.904-.904 0-1.72.336-2.224.944-.144.176-.224.304-.296.464l-.92-.232c.16-.784.344-2.352.4-3.344z" fill="#003" opacity=".7"/><path d="m35 27.95v22.6667l14.7333 5.3833v-22.95l16.0084-5.95-14.5917-5.1z" fill="#00e599"/><path d="m50.8672 33.9v12.1833l14.875 5.3834v-23.0917z" fill="#00b291"/></svg>
